X:1
T:F  Major William Billings, 1779 Revised after 1781
T:Isaac Watts, 1717 (Psalm 98, Part 2)       86. 86. (C. M.)
T:Jamaica
T:Transcribed from Music in Miniature, 1779.
%%score [ 1 2 3 4 ]
L:1/8
Q:1/4=200
M:3/2
K:F
V:1 treble nm="Tr." snm="Tr."
V:2 treble nm="C." snm="C."
V:3 treble-8 nm="T." snm="T."
V:4 bass nm="B." snm="B."
V:1
"^1.  Joy  to  the  world!  the Lord is come!  Let earth receive her King;   Let every heart prepare  him  room,  And heav'n and  nature sing." A4 | %1
 A8 c4 | c8 A4 | B8 G4 | A8 A4 | c8 A4 | d8 c4 | c8 c4 | F8 A4 | B8 c4 | c8 =B4 | c8 A4 | d8 e4 | %13
 (f3 e d4) c4 | c8 |] %15
V:2
"^2. Joy to the earth! the Savior reigns!  Let men their songs employ,  While fields and floods, rocks, hills, and plains, Repeat the sounding joy." F4 | %1
 F8 G4 | A8 F4 | G8 E4 | F8 F4 | F8 F4 | B8 G4 | A8 A4 | F8 F4 | G8 G4 | A8 G4 | G8 F4 | A8 G4 | %13
 (A3 G F4) E4 | F8 |] %15
V:3
"^3. No more let sins and sorrows grow,  Nor thorns infest the ground;  He comes to make his blessings flow  Far as  the curse  is   found." c4 | %1
 d8 e4 | f8 c4 | d8 c4 | c8 c4 | A8 c4 | f8 e4 | f8 f4 | d8 c4 | d8 e4 | f8 d4 | c8 c4 | f8 c4 | %13
 (c3 B A4) G4 | F8 |] %15
V:4
"^4. He rules the world with truth and grace, And makes the nations prove The glories of his righteousness,  And wonders  of  his   love." F,4 | %1
 D,8 C,4 | F,8 A,4 | G,8 C,4 | F,8 F,4 | F,8 A,4 | B,8 C4 | F,8 F,4 | B,8 A,4 | G,8 C,4 | F,8 G,4 | %11
 C,8 F,4 | D,8 C,4 | F,8 C,4 | F,,8 |] %15

